!! 00000] TT[WS
!!!OTL: Jieme guandeng
!!!ARE: Asia, China, Shanxi Huoxian
!! Ethnic Group: Han
!! WI, 179 (1)
!!!SCT: J0212b
!!!YEM: Copyright 1995, estate of Helmut Schaffrath.
**kern
*ICvox
*Ivox
*M2/4
*k[b-e-]
*B-:
{8r
8ff
8ff
8ff
=1
8.fff
16fff
16ccc
16ddd
[8ccc
=2
8ccc]
8fff
16ddd
16fff
16ddd
16ccc
=3
8bb-
4.bb-}
=4
{8r
8ff
8ff
8ff
=5
8.fff
16fff
16ccc
16ddd
[8ccc
=6
8ccc]
8fff
16ddd
16fff
16ddd
16ccc
=7
8bb-
4.bb-}
=8
{8ddd
8ddd
16ddd
16ccc
8bb-
=9
8fff
8gg
16ff
16gg
[8ff
=10
8ff]}
{4bb-
8gg
=11
4ff
8bb-
16ff
16gg
=12
4bb-
8dd
8ff
=13
8dd
8cc
8b-
8cc
=14
2b-}
==
!!!AGN: Xiaodiao. Fengsuge, Qingge
!!!ONB: ESAC (Essen Associative Code) Database: CHINA
!!!AMT: simple duple
!!!AIN: vox
!!!EED: Helmut Schaffrath
!!!EEV: 1.0
*-
!!!ONB: Tied note syntax fixed by Craig Sapp, 2004/05/03/
